archdroid-icon-theme/Archdroid-DeepPurple/apps/scalable/wmtweaks.svg

<svg fill="#673AB7" height="48" viewBox="0 0 44 36" width="44" xmlns="http://www.w3.org/2000/svg"><g fill="#673AB7"><path d="m40 0h-36c-2.21 0-4 1.79-4 4v28c0 2.21 1.79 4 4 4h36c2.21 0 4-1.79 4-4v-28c0-2.21-1.79-4-4-4zm0 32h-36v-28h20v8h16z"/><path d="m38.86 25.95c.08-.64.14-1.29.14-1.95s-.06-1.31-.14-1.95l4.23-3.31c.38-.3.49-.84.24-1.28l-4-6.93c-.25-.43-.77-.61-1.22-.43l-4.98 2.01c-1.03-.79-2.16-1.46-3.38-1.97l-.75-5.3c-.09-.47-.5-.84-1-.84h-8c-.5 0-.91.37-.99.84l-.75 5.3c-1.22.51-2.35 1.17-3.38 1.97l-4.98-2.01c-.45-.17-.97 0-1.22.43l-4 6.93c-.25.43-.14.97.24 1.28l4.22 3.31c-.08.64-.14 1.29-.14 1.95s.06 1.31.14 1.95l-4.22 3.31c-.38.3-.49.84-.24 1.28l4 6.93c.25.43.77.61 1.22.43l4.98-2.01c1.03.79 2.16 1.46 3.38 1.97l.75 5.3c.08.47.49.84.99.84h8c.5 0 .91-.37.99-.84l.75-5.3c1.22-.51 2.35-1.17 3.38-1.97l4.98 2.01c.45.17.97 0 1.22-.43l4-6.93c.25-.43.14-.97-.24-1.28zm-14.86 5.05c-3.87 0-7-3.13-7-7s3.13-7 7-7 7 3.13 7 7-3.13 7-7 7z" transform="matrix(.5 0 0 .5 3.727122 8)"/><circle cx="42.101696" cy="37.220341" stroke-width="16"/></g></svg>

<svg fill="#673AB7" height="48" version="1.1" viewBox="0 0 44 36" width="44" xmlns="http://www.w3.org/2000/svg"><path d="M40 0L4 0C1.79 0 0 1.79 0 4l0 28C0 34.21 1.79 36 4 36l36 0c2.21 0 4-1.79 4-4L44 4C44 1.79 42.21 0 40 0ZM40 32L4 32 4 4 24 4l0 8L40 12 40 32Z"/><g fill="#673AB7" transform="matrix(.5 0 0 .5 3.727122 8)"><path d="M38.86 25.95C38.94 25.31 39 24.66 39 24 39 23.34 38.94 22.69 38.86 22.05l4.23-3.31c.38-.3.49-.84.24-1.28l-4-6.93C39.08 10.1 38.56 9.92 38.11 10.1l-4.98 2.01c-1.03-.79-2.16-1.46-3.38-1.97L29 4.84C28.91 4.37 28.5 4 28 4L20 4C19.5 4 19.09 4.37 19.01 4.84L18.26 10.14c-1.22.51-2.35 1.17-3.38 1.97L9.9 10.1c-.45-.17-.97 0-1.22.43l-4 6.93c-.25.43-.14.97.24 1.28L9.14 22.05C9.06 22.69 9 23.34 9 24 9 24.66 9.06 25.31 9.14 25.95l-4.22 3.31c-.38.3-.49.84-.24 1.28l4 6.93c.25.43.77.61 1.22.43L14.88 35.89c1.03.79 2.16 1.46 3.38 1.97l.75 5.3C19.09 43.63 19.5 44 20 44l8 0c .5 0 .91-.37.99-.84l.75-5.3c1.22-.51 2.35-1.17 3.38-1.97l4.98 2.01c.45.17.97 0 1.22-.43l4-6.93c.25-.43.14-.97-.24-1.28l-4.22-3.31zM24 31c-3.87 0-7-3.13-7-7 0-3.87 3.13-7 7-7 3.87 0 7 3.13 7 7 0 3.87-3.13 7-7 7z"/></g><circle cx="42.101696" cy="37.220341" fill="none" rx="13.627119" ry="10.779661" stroke-width="16"/></svg>
